www/assets/icons/taxi_alert.svg

<svg width="24" height="24" viewBox="0 0 24 24" xmlns="http://www.w3.org/2000/svg" fill='currentColor'><path d="M23 7.99532C22.9978 6.40772 22.456 4.86801 21.4636 3.62887C20.4711 2.38974 19.0869 1.52478 17.5381 1.17595C15.9893 0.827121 14.3679 1.01514 12.94 1.70915C11.5121 2.40316 10.3626 3.56194 9.68 4.99532H7V6.99532H4.5C4.18761 6.99484 3.88286 7.09191 3.6283 7.27297C3.37373 7.45404 3.18205 7.71007 3.08 8.00532L1 13.9953V21.9953C1 22.2605 1.10536 22.5149 1.29289 22.7024C1.48043 22.89 1.73478 22.9953 2 22.9953H3C3.26522 22.9953 3.51957 22.89 3.70711 22.7024C3.89464 22.5149 4 22.2605 4 21.9953V20.9953H16V21.9953C16 22.2605 16.1054 22.5149 16.2929 22.7024C16.4804 22.89 16.7348 22.9953 17 22.9953H18C18.2652 22.9953 18.5196 22.89 18.7071 22.7024C18.8946 22.5149 19 22.2605 19 21.9953V14.3153C20.1954 13.747 21.2055 12.8518 21.9133 11.7334C22.6212 10.6149 22.9979 9.31894 23 7.99532ZM4.5 8.49532H9.03C9.14474 10.2005 9.88551 11.8031 11.11 12.9953H3L4.5 8.49532ZM4.5 17.9953C4.10218 17.9953 3.72064 17.8373 3.43934 17.556C3.15804 17.2747 3 16.8931 3 16.4953C3 16.0975 3.15804 15.716 3.43934 15.4347C3.72064 15.1534 4.10218 14.9953 4.5 14.9953C4.89782 14.9953 5.27936 15.1534 5.56066 15.4347C5.84196 15.716 6 16.0975 6 16.4953C6 16.8931 5.84196 17.2747 5.56066 17.556C5.27936 17.8373 4.89782 17.9953 4.5 17.9953ZM15.5 17.9953C15.1022 17.9953 14.7206 17.8373 14.4393 17.556C14.158 17.2747 14 16.8931 14 16.4953C14 16.0975 14.158 15.716 14.4393 15.4347C14.7206 15.1534 15.1022 14.9953 15.5 14.9953C15.8978 14.9953 16.2794 15.1534 16.5607 15.4347C16.842 15.716 17 16.0975 17 16.4953C17 16.8931 16.842 17.2747 16.5607 17.556C16.2794 17.8373 15.8978 17.9953 15.5 17.9953ZM18.43 12.3653L18.22 12.4753L18.04 12.5653C17.9025 12.625 17.7623 12.6783 17.62 12.7253L17.4 12.7953L17.17 12.8553L16.97 12.9053C16.2866 13.0397 15.5826 13.0298 14.9032 12.8763C14.2239 12.7228 13.5841 12.429 13.0248 12.0138C12.4656 11.5986 11.9993 11.0712 11.6558 10.4653C11.3122 9.85938 11.0991 9.18839 11.03 8.49532C11.0097 8.32943 10.9997 8.16244 11 7.99532L11.02 7.52532L11.04 7.35532L11.08 7.07532L11.12 6.86532L11.17 6.65532L11.24 6.41532L11.29 6.28532C11.6857 5.17577 12.4612 4.24199 13.4792 3.64924C14.4972 3.05649 15.692 2.843 16.8523 3.04656C18.0126 3.25012 19.0635 3.85759 19.8189 4.76147C20.5743 5.66535 20.9856 6.80734 20.98 7.98532C20.988 8.87722 20.7554 9.75479 20.3067 10.5256C19.8579 11.2964 19.2096 11.932 18.43 12.3653ZM15 3.99532H17V8.99532H15V3.99532ZM15 9.99532H17V11.9953H15V9.99532Z"/></svg>

<svg xmlns="http://www.w3.org/2000/svg" width="24" height="24" viewBox="0 0 24 24" fill='currentColor'><path d="M23 7.995a7 7 0 0 0-13.32-3H7v2H4.5a1.5 1.5 0 0 0-1.42 1.01L1 13.995v8a1 1 0 0 0 1 1h1a1 1 0 0 0 1-1v-1h12v1a1 1 0 0 0 1 1h1a1 1 0 0 0 1-1v-7.68a7.01 7.01 0 0 0 4-6.32m-18.5.5h4.53a6.93 6.93 0 0 0 2.08 4.5H3zm0 9.5a1.5 1.5 0 1 1 0-3 1.5 1.5 0 0 1 0 3m11 0a1.5 1.5 0 1 1 0-3 1.5 1.5 0 0 1 0 3m2.93-5.63-.21.11-.18.09q-.206.09-.42.16l-.22.07-.23.06-.2.05a5 5 0 0 1-5.94-4.41 4 4 0 0 1-.03-.5l.02-.47.02-.17.04-.28.04-.21.05-.21.07-.24.05-.13a4.99 4.99 0 0 1 9.69 1.7 4.96 4.96 0 0 1-2.55 4.38M15 3.995h2v5h-2zm0 6h2v2h-2z"/></svg>
